X: 624
T: Across The Hill
R: jig
M: 6/8
K: Dmixolydian
DdD cDA|ABc cdA|ADB cde|dzA GcA|
ADc cdA|ABc cde|dzd cAG|AcA GcA:|

